dist/images/icons/home.svg

<svg width="40" height="40" viewBox="0 0 40 40" fill="none" xmlns="http://www.w3.org/2000/svg">
<rect opacity="0.2" x="20" y="8.70711" width="18.799" height="18.799" transform="rotate(45 20 8.70711)" stroke="#9794C6"/>
<g filter="url(#filter0_f)">
<path d="M29.7494 19.7658C30.112 19.3671 30.077 18.756 29.6713 18.4012L20.733 10.5801C20.3273 10.2253 19.6769 10.2328 19.2797 10.5969L10.3111 18.8181C9.91389 19.1823 9.8944 19.7926 10.2679 20.1808L10.4928 20.415C10.8658 20.8033 11.4688 20.8496 11.8387 20.5181L12.509 19.9179V28.7056C12.509 29.2447 12.9458 29.6812 13.4846 29.6812H16.9806C17.5194 29.6812 17.9562 29.2447 17.9562 28.7056V22.5577H22.4154V28.7056C22.4077 29.2444 22.7932 29.6808 23.3319 29.6808H27.0368C27.5756 29.6808 28.0125 29.2444 28.0125 28.7052V20.0416C28.0125 20.0416 28.1976 20.2038 28.426 20.4045C28.654 20.6049 29.1328 20.4442 29.4954 20.0451L29.7494 19.7658Z" fill="#9794C6"/>
</g>
<g filter="url(#filter1_d)">
<path d="M29.7494 19.7658C30.112 19.3671 30.077 18.756 29.6713 18.4012L20.733 10.5801C20.3273 10.2253 19.6769 10.2328 19.2797 10.5969L10.3111 18.8181C9.91389 19.1823 9.8944 19.7926 10.2679 20.1808L10.4928 20.415C10.8658 20.8033 11.4688 20.8496 11.8387 20.5181L12.509 19.9179V28.7056C12.509 29.2447 12.9458 29.6812 13.4846 29.6812H16.9806C17.5194 29.6812 17.9562 29.2447 17.9562 28.7056V22.5577H22.4154V28.7056C22.4077 29.2444 22.7932 29.6808 23.3319 29.6808H27.0368C27.5756 29.6808 28.0125 29.2444 28.0125 28.7052V20.0416C28.0125 20.0416 28.1976 20.2038 28.426 20.4045C28.654 20.6049 29.1328 20.4442 29.4954 20.0451L29.7494 19.7658Z" fill="url(#paint0_linear)"/>
</g>
<defs>
<filter id="filter0_f" x="0" y="0.318848" width="40" height="39.3624" filterUnits="userSpaceOnUse" color-interpolation-filters="sRGB">
<feFlood flood-opacity="0" result="BackgroundImageFix"/>
<feBlend mode="normal" in="SourceGraphic" in2="BackgroundImageFix" result="shape"/>
<feGaussianBlur stdDeviation="5" result="effect1_foregroundBlur"/>
</filter>
<filter id="filter1_d" x="6" y="7.31885" width="28" height="27.3624" filterUnits="userSpaceOnUse" color-interpolation-filters="sRGB">
<feFlood flood-opacity="0" result="BackgroundImageFix"/>
<feColorMatrix in="SourceAlpha" type="matrix" values="0 0 0 0 0 0 0 0 0 0 0 0 0 0 0 0 0 0 127 0" result="hardAlpha"/>
<feOffset dy="1"/>
<feGaussianBlur stdDeviation="2"/>
<feColorMatrix type="matrix" values="0 0 0 0 0 0 0 0 0 0 0 0 0 0 0 0 0 0 0.5 0"/>
<feBlend mode="normal" in2="BackgroundImageFix" result="effect1_dropShadow"/>
<feBlend mode="normal" in="SourceGraphic" in2="effect1_dropShadow" result="shape"/>
</filter>
<linearGradient id="paint0_linear" x1="20" y1="10.3188" x2="20" y2="29.6812" gradientUnits="userSpaceOnUse">
<stop stop-color="#F5EDFF"/>
<stop offset="1" stop-color="#CABDDB"/>
</linearGradient>
</defs>
</svg>

<svg width="40" height="40" fill="none" xmlns="http://www.w3.org/2000/svg"><path opacity=".2" stroke="#9794C6" d="M20 8.707L33.293 22 20 35.293 6.707 22z"/><g filter="url(#filter0_f)"><path d="M29.75 19.766a.954.954 0 00-.079-1.365l-8.938-7.82a1.114 1.114 0 00-1.453.016l-8.969 8.221a.948.948 0 00-.043 1.363l.225.234c.373.388.976.435 1.346.103l.67-.6v8.788c0 .539.437.975.976.975h3.496a.975.975 0 00.975-.975v-6.148h4.46v6.148c-.008.538.377.975.916.975h3.705a.975.975 0 00.976-.976v-8.663l.413.362c.228.2.707.04 1.07-.359l.253-.28z" fill="#9794C6"/></g><g filter="url(#filter1_d)"><path d="M29.75 19.766a.954.954 0 00-.079-1.365l-8.938-7.82a1.114 1.114 0 00-1.453.016l-8.969 8.221a.948.948 0 00-.043 1.363l.225.234c.373.388.976.435 1.346.103l.67-.6v8.788c0 .539.437.975.976.975h3.496a.975.975 0 00.975-.975v-6.148h4.46v6.148c-.008.538.377.975.916.975h3.705a.975.975 0 00.976-.976v-8.663l.413.362c.228.2.707.04 1.07-.359l.253-.28z" fill="url(#paint0_linear)"/></g><defs><filter id="filter0_f" x="0" y=".319" width="40" height="39.362" filterUnits="userSpaceOnUse" color-interpolation-filters="sRGB"><feFlood flood-opacity="0" result="BackgroundImageFix"/><feBlend in="SourceGraphic" in2="BackgroundImageFix" result="shape"/><feGaussianBlur stdDeviation="5" result="effect1_foregroundBlur"/></filter><filter id="filter1_d" x="6" y="7.319" width="28" height="27.362" filterUnits="userSpaceOnUse" color-interpolation-filters="sRGB"><feFlood flood-opacity="0" result="BackgroundImageFix"/><feColorMatrix in="SourceAlpha" values="0 0 0 0 0 0 0 0 0 0 0 0 0 0 0 0 0 0 127 0" result="hardAlpha"/><feOffset dy="1"/><feGaussianBlur stdDeviation="2"/><feColorMatrix values="0 0 0 0 0 0 0 0 0 0 0 0 0 0 0 0 0 0 0.5 0"/><feBlend in2="BackgroundImageFix" result="effect1_dropShadow"/><feBlend in="SourceGraphic" in2="effect1_dropShadow" result="shape"/></filter><linearGradient id="paint0_linear" x1="20" y1="10.319" x2="20" y2="29.681" gradientUnits="userSpaceOnUse"><stop stop-color="#F5EDFF"/><stop offset="1" stop-color="#CABDDB"/></linearGradient></defs></svg>
